src/components/Careers/InterviewProcess/images/superday.svg

<svg xmlns="http://www.w3.org/2000/svg" xmlns:xlink="http://www.w3.org/1999/xlink" width="65" height="81" version="1.1" viewBox="0 0 65 81"><title>superday</title><desc>Created with Sketch.</desc><defs><path id="path-1" d="M29.7639,1.5564 C30.8458,-0.4596 33.609,-0.533 34.7862,1.4289 C37.9673,6.7305 43.2754,16.2946 46.2978,25.6697 C46.5636,26.4941 46.9157,27.2883 47.3696,28.0261 L64.6883,56.1749 C65.2956,57.1619 63.8201,58.4518 62.8831,57.7699 C60.1755,55.7995 56.8699,53.7101 53.9133,52.7294 C51.1966,51.8282 47.1264,51.3166 45.3276,51.1228 C45.1471,51.1033 44.9525,51.1514 44.8468,51.2989 C44.1916,52.2135 43.4354,53.0534 42.5669,53.7958 C41.3356,54.8482 40.4172,56.2958 40.4172,57.9155 L40.4172,60.2285 C40.4172,61.3331 39.5218,62.2285 38.4172,62.2285 L26.4172,62.2285 C25.3127,62.2285 24.4172,61.3331 24.4172,60.2285 L24.4172,58.5112 C24.4172,56.66 23.3347,55.0212 21.9513,53.7911 C21.0919,53.0269 20.354,52.16 19.7229,51.2163 C19.6753,51.145 19.5883,51.1128 19.503,51.1219 C17.7042,51.3158 13.634,51.8274 10.9172,52.7285 C7.9607,53.7092 4.6551,55.7987 1.9475,57.769 C1.0105,58.4509 -0.465,57.161 0.1423,56.1739 L18.5606,26.2379 C18.6146,26.1501 18.6756,26.0655 18.7365,25.9809 C18.8597,25.81 18.9829,25.6391 19.0491,25.4416 C22.0529,16.4843 26.8801,6.9297 29.7639,1.5564 Z M32.5,41 C36.0899,41 39,38.0899 39,34.5 C39,30.9101 36.0899,28 32.5,28 C28.9101,28 26,30.9101 26,34.5 C26,38.0899 28.9101,41 32.5,41 Z"/></defs><g id="Page-1" fill="none" fill-rule="evenodd" stroke="none" stroke-width="1"><g id="superday" transform="translate(-22.000000, -15.000000)"><g id="Group"><rect id="Rectangle" width="108.132" height="108.132" x="0" y="0" fill-rule="nonzero" rx="9.403"/><rect id="Rectangle" width="105.132" height="105.132" x="1.5" y="1.5" rx="7.903"/></g><path id="Shape" fill="#FB7F0D" fill-opacity=".4" d="M51.7639,16.5564 C52.8458,14.5404 55.609,14.467 56.7862,16.4289 C59.9673,21.7305 65.2754,31.2946 68.2978,40.6697 C68.5636,41.4941 68.9157,42.2883 69.3696,43.0261 L86.6883,71.1749 C87.2956,72.1619 85.8201,73.4518 84.8831,72.7699 C82.1755,70.7995 78.8699,68.7101 75.9133,67.7294 C73.1966,66.8282 69.1264,66.3166 67.3276,66.1228 C67.1471,66.1033 66.9525,66.1514 66.8468,66.2989 C66.1916,67.2135 65.4354,68.0534 64.5669,68.7958 C63.3356,69.8482 62.4172,71.2958 62.4172,72.9155 L62.4172,75.2285 C62.4172,76.3331 61.5218,77.2285 60.4172,77.2285 L48.4172,77.2285 C47.3127,77.2285 46.4172,76.3331 46.4172,75.2285 L46.4172,73.5112 C46.4172,71.66 45.3347,70.0212 43.9513,68.7911 C43.0919,68.0269 42.354,67.16 41.7229,66.2163 C41.6753,66.145 41.5883,66.1128 41.503,66.1219 C39.7042,66.3158 35.634,66.8274 32.9172,67.7285 C29.9607,68.7092 26.6551,70.7987 23.9475,72.769 C23.0105,73.4509 21.535,72.161 22.1423,71.1739 L40.5606,41.2379 C40.6146,41.1501 40.6756,41.0655 40.7365,40.9809 C40.8597,40.81 40.9829,40.6391 41.0491,40.4416 C44.0529,31.4843 48.8801,21.9297 51.7639,16.5564 Z M54.5,56 C58.0899,56 61,53.0899 61,49.5 C61,45.9101 58.0899,43 54.5,43 C50.9101,43 48,45.9101 48,49.5 C48,53.0899 50.9101,56 54.5,56 Z"/><g id="Clipped" transform="translate(22.000000, 15.000000)"><mask id="mask-2" fill="#fff"><use xlink:href="#path-1"/></mask><path id="Shape" fill="#FB7F0D" fill-opacity=".4" fill-rule="nonzero" d="M34.7862,1.4289 L37.3586,-0.1146 L37.3586,-0.1146 L34.7862,1.4289 Z M29.7639,1.5564 L32.4072,2.975 L32.4072,2.975 L29.7639,1.5564 Z M46.2978,25.6697 L43.4425,26.5902 L43.4425,26.5902 L46.2978,25.6697 Z M47.3696,28.0261 L49.9247,26.454 L49.9247,26.454 L47.3696,28.0261 Z M64.6883,56.1749 L62.1331,57.747 L62.1332,57.7471 L64.6883,56.1749 Z M62.8831,57.7699 L61.1178,60.1956 L61.1179,60.1956 L62.8831,57.7699 Z M53.9133,52.7294 L54.8579,49.8819 L54.8578,49.8819 L53.9133,52.7294 Z M45.3276,51.1228 L45.0058,54.1055 L45.0061,54.1055 L45.3276,51.1228 Z M44.8468,51.2989 L47.2855,53.0461 L47.2855,53.046 L44.8468,51.2989 Z M42.5669,53.7958 L44.5161,56.0763 L42.5669,53.7958 Z M21.9513,53.7911 L23.9447,51.5492 L21.9513,53.7911 Z M19.7229,51.2163 L22.2169,49.5488 L22.2168,49.5488 L19.7229,51.2163 Z M19.503,51.1219 L19.185,48.1388 L19.1816,48.1392 L19.503,51.1219 Z M10.9172,52.7285 L9.9728,49.8811 L9.9727,49.8811 L10.9172,52.7285 Z M1.9475,57.769 L3.7127,60.1947 L3.7127,60.1947 L1.9475,57.769 Z M0.1423,56.1739 L2.6974,57.746 L2.6974,57.746 L0.1423,56.1739 Z M18.5606,26.2379 L16.0057,24.6654 L16.0055,24.6659 L18.5606,26.2379 Z M18.7365,25.9809 L16.3026,24.2271 L16.3026,24.2271 L18.7365,25.9809 Z M19.0491,25.4416 L21.8934,26.3955 L21.8934,26.3954 L19.0491,25.4416 Z M37.3586,-0.1146 C34.9758,-4.0858 29.2964,-3.9167 27.1205,0.1377 L32.4072,2.975 C32.4178,2.9554 32.4228,2.9518 32.4179,2.9569 C32.4133,2.9618 32.4045,2.9696 32.3916,2.9774 C32.3662,2.9927 32.3399,2.9994 32.3167,3.00004519 C32.2934,3.0006 32.2648,2.9953 32.2357,2.9796 C32.221,2.9718 32.2105,2.9634 32.2045,2.9577 C32.1983,2.9518 32.2027,2.9541 32.2138,2.9725 L37.3586,-0.1146 Z M49.1531,24.7492 C46.0234,15.0412 40.5724,5.2415 37.3586,-0.1146 L32.2138,2.9725 C35.3621,8.2195 40.5275,17.5479 43.4425,26.5902 L49.1531,24.7492 Z M49.9247,26.454 C49.6114,25.9449 49.3545,25.3739 49.1531,24.7492 L43.4425,26.5902 C43.7727,27.6143 44.2199,28.6318 44.8145,29.5981 L49.9247,26.454 Z M67.2434,54.6029 L49.9247,26.454 L44.8145,29.5981 L62.1331,57.747 L67.2434,54.6029 Z M61.1179,60.1956 C63.1379,61.6656 65.3238,60.7498 66.3459,59.8511 C67.3675,58.9527 68.6082,56.8209 67.2433,54.6027 L62.1332,57.7471 C61.8069,57.2168 61.7727,56.6159 61.8988,56.1509 C62.0096,55.7426 62.2215,55.488 62.3837,55.3454 C62.5478,55.2011 62.8081,55.0413 63.1856,54.9826 C63.6074,54.9172 64.1626,54.9908 64.6483,55.3442 L61.1179,60.1956 Z M52.9688,55.5768 C55.4665,56.4053 58.464,58.2643 61.1178,60.1956 L64.6483,55.3442 C61.887,53.3348 58.2732,51.0148 54.8579,49.8819 L52.9688,55.5768 Z M45.0061,54.1055 C46.828,54.3019 50.5965,54.7899 52.9688,55.5768 L54.8578,49.8819 C51.7968,48.8666 47.4247,48.3314 45.649,48.1401 L45.0061,54.1055 Z M47.2855,53.046 C46.9039,53.5788 46.4054,53.8623 46.0042,53.9955 C45.6182,54.1236 45.2717,54.1342 45.0058,54.1055 L45.6494,48.1401 C44.8943,48.0586 43.3908,48.18 42.408,49.5518 L47.2855,53.046 Z M44.5161,56.0763 C45.5819,55.1653 46.4997,54.1429 47.2855,53.0461 L42.408,49.5518 C41.8834,50.2841 41.289,50.9416 40.6177,51.5153 L44.5161,56.0763 Z M43.4172,57.9155 C43.4172,57.4646 43.6924,56.7803 44.5161,56.0763 L40.6177,51.5153 C38.9788,52.9161 37.4172,55.1269 37.4172,57.9155 L43.4172,57.9155 Z M43.4172,60.2285 L43.4172,57.9155 L37.4172,57.9155 L37.4172,60.2285 L43.4172,60.2285 Z M38.4172,65.2285 C41.1786,65.2285 43.4172,62.99 43.4172,60.2285 L37.4172,60.2285 C37.4172,59.6762 37.865,59.2285 38.4172,59.2285 L38.4172,65.2285 Z M26.4172,65.2285 L38.4172,65.2285 L38.4172,59.2285 L26.4172,59.2285 L26.4172,65.2285 Z M21.4172,60.2285 C21.4172,62.99 23.6558,65.2285 26.4172,65.2285 L26.4172,59.2285 C26.9695,59.2285 27.4172,59.6762 27.4172,60.2285 L21.4172,60.2285 Z M21.4172,58.5112 L21.4172,60.2285 L27.4172,60.2285 L27.4172,58.5112 L21.4172,58.5112 Z M19.9578,56.033 C21.0133,56.9715 21.4172,57.8608 21.4172,58.5112 L27.4172,58.5112 C27.4172,55.4592 25.6561,53.0709 23.9447,51.5492 L19.9578,56.033 Z M17.229,52.8837 C17.9896,54.0212 18.8922,55.0854 19.9578,56.033 L23.9447,51.5492 C23.2916,50.9684 22.7183,50.2988 22.2169,49.5488 L17.229,52.8837 Z M19.821,54.105 C19.0233,54.1901 17.9182,53.9144 17.229,52.8837 L22.2168,49.5488 C21.4324,48.3755 20.1532,48.0356 19.185,48.1388 L19.821,54.105 Z M11.8617,55.5759 C14.2341,54.789 18.0026,54.301 19.8244,54.1047 L19.1816,48.1392 C17.4058,48.3306 13.0338,48.8657 9.9728,49.8811 L11.8617,55.5759 Z M3.7127,60.1947 C6.3666,58.2635 9.364,56.4045 11.8618,55.5759 L9.9727,49.8811 C6.5574,51.014 2.9436,53.3339 0.1823,55.3433 L3.7127,60.1947 Z M-2.4128,54.6019 C-3.7775,56.82 -2.537,58.9517 -1.5153,59.8502 C-0.4932,60.749 1.6927,61.6647 3.7127,60.1947 L0.1823,55.3433 C0.668,54.9899 1.2232,54.9163 1.645,54.9818 C2.0226,55.0404 2.2828,55.2002 2.4469,55.3445 C2.6091,55.4872 2.821,55.7417 2.9318,56.1501 C3.0579,56.615 3.0236,57.2158 2.6974,57.746 L-2.4128,54.6019 Z M16.0055,24.6659 L-2.4128,54.6019 L2.6974,57.746 L21.1157,27.81 L16.0055,24.6659 Z M16.3026,24.2271 C16.2528,24.2962 16.1266,24.469 16.0057,24.6654 L21.1154,27.8104 C21.1049,27.8276 21.1011,27.8323 21.1111,27.8179 C21.1158,27.8111 21.1226,27.8015 21.1327,27.7873 C21.1433,27.7725 21.1546,27.7568 21.1705,27.7347 L16.3026,24.2271 Z M16.2048,24.4878 C16.2661,24.3049 16.3361,24.1865 16.357,24.1525 C16.368,24.1345 16.3721,24.1292 16.3622,24.1435 C16.3507,24.1602 16.3361,24.1806 16.3026,24.2271 L21.1705,27.7347 C21.2442,27.6325 21.658,27.0974 21.8934,26.3955 L16.2048,24.4878 Z M27.1205,0.1377 C24.2162,5.5493 19.2913,15.2837 16.2048,24.4878 L21.8934,26.3954 C24.8145,17.6848 29.544,8.3101 32.4072,2.975 L27.1205,0.1377 Z M36,34.5 C36,36.433 34.433,38 32.5,38 L32.5,44 C37.7467,44 42,39.7467 42,34.5 L36,34.5 Z M32.5,31 C34.433,31 36,32.567 36,34.5 L42,34.5 C42,29.2533 37.7467,25 32.5,25 L32.5,31 Z M29,34.5 C29,32.567 30.567,31 32.5,31 L32.5,25 C27.2533,25 23,29.2533 23,34.5 L29,34.5 Z M32.5,38 C30.567,38 29,36.433 29,34.5 L23,34.5 C23,39.7467 27.2533,44 32.5,44 L32.5,38 Z" mask="url(#mask-2)"/></g><g id="Group" opacity=".4" transform="translate(46.000000, 80.000000)"><path id="Path" fill="#FB7F0D" fill-opacity=".4" fill-rule="nonzero" d="M9.366,14.5 C8.9811,15.1667 8.0189,15.1667 7.634,14.5 L0.2728,1.75 C-0.1121,1.0833 0.369,0.25 1.1388,0.25 L15.8612,0.25 C16.631,0.25 17.1121,1.0833 16.7272,1.75 L9.366,14.5 Z"/><polygon id="Shape" stroke="#FB7F0D" stroke-opacity=".4" stroke-width="3" points="14.995 1.75 8.5 13 2.005 1.75"/></g></g></g></svg>

<svg xmlns:xlink="http://www.w3.org/1999/xlink" viewBox="0 0 65 81"><defs><path id="a" d="M29.764 1.556c1.082-2.016 3.845-2.089 5.022-.127 3.181 5.302 8.49 14.866 11.512 24.24.266.825.618 1.62 1.072 2.357l17.318 28.149c.608.987-.868 2.277-1.805 1.595-2.708-1.97-6.013-4.06-8.97-5.04-2.716-.902-6.787-1.413-8.585-1.607-.18-.02-.376.028-.481.176a13.978 13.978 0 01-2.28 2.497c-1.231 1.052-2.15 2.5-2.15 4.12v2.313a2 2 0 01-2 2h-12a2 2 0 01-2-2V58.51c0-1.851-1.082-3.49-2.466-4.72a13.378 13.378 0 01-2.228-2.575.232.232 0 00-.22-.094c-1.799.194-5.869.705-8.586 1.606-2.956.981-6.262 3.07-8.97 5.041-.937.682-2.412-.608-1.805-1.595l18.419-29.936c.054-.088.115-.172.175-.257.124-.171.247-.342.313-.54 3.004-8.955 7.831-18.51 10.715-23.883zM32.5 41a6.5 6.5 0 100-13 6.5 6.5 0 000 13z"/></defs><g fill="none" fill-rule="evenodd" transform="translate(-22 -15)"><rect width="108.132" height="108.132" rx="9.403"/><rect width="105.132" height="105.132" x="1.5" y="1.5" rx="7.903"/><path fill="#FB7F0D" fill-opacity=".4" d="M51.764 16.556c1.082-2.016 3.845-2.089 5.022-.127 3.181 5.302 8.49 14.866 11.512 24.24.266.825.618 1.62 1.072 2.357l17.318 28.149c.608.987-.868 2.277-1.805 1.595-2.707-1.97-6.013-4.06-8.97-5.04-2.716-.902-6.787-1.413-8.585-1.607-.18-.02-.376.028-.481.176a13.978 13.978 0 01-2.28 2.497c-1.231 1.052-2.15 2.5-2.15 4.12v2.313a2 2 0 01-2 2h-12a2 2 0 01-2-2V73.51c0-1.851-1.082-3.49-2.466-4.72a13.378 13.378 0 01-2.228-2.575.232.232 0 00-.22-.094c-1.799.194-5.869.705-8.586 1.606-2.956.981-6.262 3.07-8.97 5.041-.936.682-2.412-.608-1.805-1.595l18.419-29.936c.054-.088.115-.172.175-.257.124-.171.247-.342.313-.54 3.004-8.957 7.831-18.511 10.715-23.885zM54.5 56a6.5 6.5 0 100-13 6.5 6.5 0 000 13z"/><g transform="translate(22 15)"><mask id="b" fill="#fff"><use xlink:href="#a"/></mask><path fill="#FB7F0D" fill-opacity=".4" fill-rule="nonzero" d="M34.786 1.429L37.36-.115 34.786 1.43zm-5.022.127l2.643 1.419-2.643-1.419zM46.298 25.67l-2.855.92 2.855-.92zm1.072 2.356l2.555-1.572-2.555 1.572zm17.318 28.149l-2.555 1.572 2.555-1.572zm-1.805 1.595l-1.765 2.426 1.765-2.426zm-8.97-5.04l.945-2.848-.945 2.847zm-8.585-1.607l-.322 2.983.322-2.983zm-.481.176l2.438 1.747-2.438-1.747zm-2.28 2.497l1.95 2.28-1.95-2.28zM21.95 53.79l1.994-2.242-1.994 2.242zm-2.228-2.575l2.494-1.667-2.494 1.667zm-.22-.094l-.318-2.983h-.003l.321 2.983zm-8.586 1.606l-.944-2.847.944 2.847zm-8.97 5.041l1.766 2.426-1.766-2.426zM.142 56.174l2.555 1.572-2.555-1.572zm18.419-29.936l-2.555-1.573 2.555 1.573zm.175-.257l-2.433-1.754 2.433 1.754zm.313-.54l2.844.954-2.844-.953zM37.36-.114c-2.383-3.97-8.063-3.802-10.239.253l5.287 2.837c.01-.02.016-.023.01-.018a.154.154 0 01-.101.043.164.164 0 01-.111-.042c-.007-.006-.002-.004.009.014L37.36-.114zM49.153 24.75c-3.13-9.708-8.58-19.508-11.794-24.864l-5.145 3.088c3.148 5.247 8.314 14.575 11.229 23.617l5.71-1.84zm.772 1.705a7.826 7.826 0 01-.772-1.705l-5.71 1.841a13.82 13.82 0 001.372 3.008l5.11-3.144zm17.318 28.149l-17.318-28.15-5.11 3.144 17.318 28.149 5.11-3.144zm-6.125 5.593c2.02 1.47 4.206.554 5.228-.345 1.022-.898 2.262-3.03.897-5.248l-5.11 3.144a2.056 2.056 0 01-.234-1.596c.11-.408.322-.663.485-.806a1.56 1.56 0 01.802-.362c.421-.066.977.008 1.462.361l-3.53 4.852zm-8.15-4.62c2.498.83 5.496 2.688 8.15 4.62l3.53-4.852c-2.761-2.01-6.375-4.33-9.79-5.462l-1.89 5.695zm-7.962-1.47c1.822.196 5.59.684 7.963 1.47l1.889-5.694c-3.061-1.015-7.433-1.55-9.209-1.742l-.643 5.965zm2.28-1.06c-.382.533-.88.816-1.282.95a2.36 2.36 0 01-.998.11l.643-5.966c-.755-.081-2.258.04-3.241 1.412l4.877 3.494zm-2.77 3.03a16.979 16.979 0 002.77-3.03l-4.878-3.494a10.973 10.973 0 01-1.79 1.963l3.898 4.561zm-1.099 1.84c0-.451.275-1.136 1.1-1.84l-3.9-4.56c-1.638 1.4-3.2 3.61-3.2 6.4h6zm0 2.313v-2.313h-6v2.313h6zm-5 5a5 5 0 005-5h-6a1 1 0 011-1v6zm-12 0h12v-6h-12v6zm-5-5a5 5 0 005 5v-6a1 1 0 011 1h-6zm0-1.718v1.717h6v-1.717h-6zm-1.46-2.478c1.056.938 1.46 1.828 1.46 2.478h6c0-3.052-1.76-5.44-3.472-6.962l-3.987 4.484zm-2.728-3.15a16.376 16.376 0 002.729 3.15l3.987-4.484a10.374 10.374 0 01-1.728-2l-4.988 3.335zm2.592 1.222a2.769 2.769 0 01-2.592-1.221l4.988-3.335c-.785-1.173-2.064-1.513-3.032-1.41l.636 5.966zm-7.96 1.47c2.373-.786 6.142-1.274 7.963-1.47l-.642-5.966c-1.776.192-6.148.727-9.21 1.742l1.89 5.695zm-8.148 4.62c2.654-1.931 5.651-3.79 8.149-4.62l-1.89-5.694c-3.415 1.133-7.028 3.453-9.79 5.462l3.53 4.852zm-6.126-5.593c-1.365 2.218-.124 4.35.898 5.248 1.022.899 3.208 1.815 5.228.345l-3.53-4.852a1.995 1.995 0 011.462-.361c.378.058.638.218.802.362.162.143.374.398.485.806a2.055 2.055 0 01-.235 1.596l-5.11-3.144zm18.419-29.936L-2.413 54.602l5.11 3.144L21.116 27.81l-5.11-3.144zm.297-.439c-.05.07-.176.242-.297.438l5.11 3.145c-.011.018-.015.022-.005.008l.022-.03.038-.053-4.868-3.508zm-.098.26c.061-.182.131-.3.152-.334.011-.018.015-.024.005-.01a5.297 5.297 0 01-.06.084l4.869 3.508c.073-.102.487-.638.722-1.34l-5.688-1.907zM27.12.138c-2.905 5.412-7.83 15.147-10.916 24.35l5.688 1.908c2.921-8.71 7.651-18.085 10.514-23.42L27.121.138zM36 34.5a3.5 3.5 0 01-3.5 3.5v6a9.5 9.5 0 009.5-9.5h-6zM32.5 31a3.5 3.5 0 013.5 3.5h6a9.5 9.5 0 00-9.5-9.5v6zM29 34.5a3.5 3.5 0 013.5-3.5v-6a9.5 9.5 0 00-9.5 9.5h6zm3.5 3.5a3.5 3.5 0 01-3.5-3.5h-6a9.5 9.5 0 009.5 9.5v-6z" mask="url(#b)"/></g><g opacity=".4"><path fill="#FB7F0D" fill-opacity=".4" fill-rule="nonzero" d="M55.366 94.5a1 1 0 01-1.732 0l-7.361-12.75a1 1 0 01.866-1.5H61.86a1 1 0 01.866 1.5l-7.36 12.75z"/><path stroke="#FB7F0D" stroke-opacity=".4" stroke-width="3" d="M60.995 81.75L54.5 93l-6.495-11.25z"/></g></g></svg>
